X:3
M:4/4
L:1/4
K:F
c2 d c | A2 c2 | B B A2 | G2 A B | c2 (B A) | G2 F2 | c2 d c | A2 c2 | B B A2 | G2 A B | c2 (B A) | G2 F2 | F2 G A | B2 G2 | A G F2 | F2 A B | c2 d2 | A =B c2 | z2 A2 | c d c A | B2 A2 | d2 d d | G2 c2 | B2 A2 | G4 | B2 A G | F2 G2 | (E F) D2 | C2 !sintro!C2 | F G A B | (c3/2 B/ A B | G2) F2 !eintro!|]
